X:1
T:Beethoven - Fantasia in G Minor.
%%score { ( 1 3 ) | ( 2 4 5 ) } 6
L:1/8
Q:1/4=90
M:4/4
K:Bb
V:1 treble nm="Piano"
V:3 treble 
V:2 bass 
V:4 bass 
V:5 bass 
V:6 treble nm="Piano" snm="Pno."
V:1
!f!"^Allegro""^Fantasia\nin G Minor/Bb Major\n             Op. 77" e'/4d'/4c'/4b/4a/4g/4^f/4e/4d/4c/4B/4A/4 !breath!!fermata!z z2 x[Q:1/4=35] !fermata!z!p!"^poco adagio" (D2 c2[Q:1/4=1] | %1
 B2 (3Ace !invertedturn!G2 (3:2:2B2 A | %2
 G2)[Q:1/4=10] z/4[Q:1/4=90]!f! _d'/4c'/4b/4_a/4g/4=f/4=e/4_d/4c/4B/4_A/4G/4 !breath!!fermata!z z2 x3/4 x !fermata!z!p![Q:1/4=35]"^poco adagio" (C2 B2 | %3
 _A2 (3GB_d !invertedturn!F2 (3:2:2A2 G | F2-) F7/4 | %5
[K:Ab][M:2/4]"^l'istesso tempo"[Q:1/4=30] A/4 | %6
 (A"_espressivo"d/4) z/4 z/4 d/4 (dc/4) z/4 z/4 d/4 | (ec/4) z/4 z/4 A/4 (Ad/4) z/4 z/4 A/4 | %8
 ([F-A][Fd]/4) z/4 z/4 A/4 ([E-B][E_G]/4) z/4 z/4 F/4 | %9
 ([D-F][DE]/4) z/4 z/4[Q:1/4=25] E/4 !breath!!fermata!E2[Q:1/4=90]!f!"^Allegro" e'/4d'/4c'/4b/4a/4=g/4f/4e/4d/4c/4B/4A/4=G/4F/4E/4D/4[I:staff +1]C/4B,/4A,/4G,/4F,/4E,/4D,/4C,/4!<(!B,,/4A,,/4G,,/4F,,/4E,,/4D,,/4!ped!C,,/4!ped-up!B,,,/4[Q:1/4=1]!fff!.A,,,/4!<)![Q:1/4=15][I:staff -1] x/4 !fermata!z7/4 x/!p! [Aa]/4"_espressivo""^l'istesso tempo di sopra" | %10
[Q:1/4=30] ([Aa][dd']/4) z/4 z/4 [dd']/4 ([dd'][cc']/4) z/4 z/4 [dd']/4 | %11
!p! ([ee'][cc']/4) z/4 z/4 [Aa]/4 ([Aa][dd']/4) z/4 z/4 [Aa]/4 | %12
 ([Aa][dd']/4) z/4 z/4 [Aa]/4 ([Bb][_G_g]/4) z/4 z/4 [Ff]/4 | %13
 ([Ff][Ee]/4) z/4 z/4 [Ee]/4!mp![Q:1/4=25]!<(! ([Ee]>[Ff]!<)! | %14
!f! [_G_g][Ff]/4) z/4 z/4 [Ff]/4[Q:1/4=10] !fermata![Ff]2 | %15
[K:Ab]!p![Q:1/4=60] f'/8=e'/8=d'/8"_cresc."c'/8b/8=a/8=g/8f/8=e/8=d/8c/8B/8=A/8=G/8F/8=E/8=D/8[I:staff +1]C/8B,/8=A,/8G,/8[I:staff -1] x2 x3/4[Q:1/4=10] !fermata!z[Q:1/4=1] x/8 || %16
[K:Bb][M:6/8]"_dolce"[Q:1/4=80]!mp!"^Allegro, ma non troppo" F | %17
[Q:1/4=90] ([DB]2 [Fd] [Ec]2!f!!>(! [Af]) | ([FBd]3!>)!!mp! [DFB]2 [FA]) | %19
{/A} ([B,=EG]2 F [B,EG]2 A) | [A,F]3!f! [B,_EG]3 |!f! [B,EG][B,EG][B,EG] [B,FB][B,FB][B,FB] | %22
 [CFAc][CFAc][CFAc] ([DFBd]2 [Gg]) | [FBf][FBf][FBf] [FAf][FAf][FAf] | !>![FBd]3"_dim." [G,B,G]3 | %25
 [G,B,G][G,B,G][G,B,G] [B,FB][B,FB][B,FB] | [CFAc][CFAc][CFAc]!p! ([DFBd]2 [Gg]) | %27
"_piu"!p! [Gg][GBg][GBg] [GBg][GBg][GBg] | [GBg][GBg][GBg] [GBg][GBg][GBg] |!pp! [GBg]3 [GBg]3 | %30
 [GBg]3 [GBg]3 | [FB_a]3!p!!p! (_A3 | D3 F3 | B,3)!<(! ([_Af]3- |!mp! [Af]3!<)!!>(! [Ge]3!>)! | %35
!p! [Fd]2) z!>(! (!>!B2 _A)!>)! |!p! D3!>(! (!>!G2 F)!>)! | B,3"_cresc." [_Af]3- | %38
"_dim." [Af]3 [Ge]3[Q:1/4=40] |!pp![Q:1/4=30] !fermata![Ge]3!ff! !fermata![=EG^c=e]3 || %40
[K:F][Q:1/4=80]!f! ^C/4E/4 (5:4:5G/4E/4C/4E/4G/4 (5:4:5^c/4G/4E/4G/4c/4 (5:4:5e/4^c/4G/4c/4e/4 (5:4:5g/4e/4c/4e/4g/4 (5:4:5^c'/4g/4e/4g/4c'/4 (5:4:5e'/4c'/4g/4c'/4e'/4!f! !>![g^c'e'g'] z z x3/2 (5:4:5^F/4C/4A,/4C/4F/4 (5:4:5A/4F/4C/4F/4A/4 | %41
 (5:4:5=c/4A/4^F/4A/4c/4 (5:4:5^f/4c/4A/4c/4f/4 (5:4:5a/4f/4c/4f/4a/4 !>![c^fa=c'] z z =B,/4D/4 (5:4:5=F/4D/4B,/4D/4F/4 (5:4:5=B/4F/4D/4F/4B/4 (5:4:5d/4B/4F/4B/4d/4 (5:4:5=f/4d/4B/4d/4f/4 (5:4:5=b/4f/4d/4f/4b/4 (5:4:5d'/4b/4f/4b/4d'/4 !>![fad'f'] z z x/ | %42
 A,/4^C/4 (5:4:5E/4C/4A,/4C/4E/4 (5:4:5G/4E/4C/4E/4G/4 (5:4:5^c/4G/4E/4G/4c/4 (5:4:5e/4c/4G/4c/4e/4 (5:4:5g/4e/4c/4e/4g/4 (5:4:5^c'/4g/4e/4g/4c'/4 (5:4:5e'/4c'/4g/4c'/4e'/4 g'/4e'/4d'/4^c'/4_b/4a/4g/4f/4e/4d/4[Q:1/4=10] !fermata!^c || %43
[M:2/4][Q:1/4=80]"^Allegro con brio" z |[Q:1/4=130] x2 A,/A/D/d/ | !>!F/f/D/d/ ^C/^c/D/d/ | %46
 !>!E/e/G/g/ F/f/E/e/ | F/f/D/d/ ^C/^c/D/[Q:1/4=15]!fermata!d/ |[Q:1/4=130] z4 | %49
 z [Adfa] z [Adfa] | z [Adfa] z [Adfa] | z [A=cea] z [^Gde^g] | [Acea]2 z C/c/ | %53
 !>!F/f/A/a/ c/c'/f/f'/ | !>!a/a'/f/f'/ e/e'/f/f'/ | !>!c/c'/A/a/ ^G/^g/A/a/ | %56
 !>!B/b/=G/=g/ ^F/^f/G/g/ | !>!E/e/^C/^c/ ^B,/^B/C/c/ | x4 | x2 A,/A/^C/^c/ | [Dd]2 z =C/=c/ | %61
 !>!F/f/A/a/ c/c'/f/f'/ | !>!a/a'/f/f'/ e/e'/f/f'/ | !>!c/c'/A/a/ ^G/^g/A/a/ | %64
 !>!B/b/=G/=g/ ^F/^f/G/g/ | !>!E/e/^C/^c/ ^B,/^B/C/c/ | !>!A,/A/G,/G/ F,/F/E,/E/ | %67
 D[Adfa] z [Adfa] | z [A^cga] z [Acga] |[K:F] z [Adfa] z [Adfa] | z [A^cga] z [Acga] | %71
!p! D/d/F/f/ A/a/d/d'/ | e/e'/A/a/ ^c/^c'/A/a/ | d/d'/A/a/ f/f'/A/a/ | e/e'/A/a/ ^c/^c'/A/a/ | %75
!f! [dd'][Adfa] z [Adfa] | z [A^cga] z [Bega] |!p! D/d/F/f/ A/a/d/d'/ | e/e'/A/a/ ^c/^c'/A/a/ | %79
!f! [dd'][Adfa] z [Adfa] |"_cresc." z [A^cga] z [eg^c'] | z [eg^c'] z [egc'e'] | %82
 z [eg^c'e'] z[Q:1/4=80] [gbe'g'] | %83
!ff![Q:1/4=18] !fermata![EG^ce]2!p! !arpeggio!!breath!!fermata![_EG_d_e]2 || %84
[K:Ab][M:2/4][Q:1/4=30]"^Adagio" (.E.E.E.E) | (.E.E.E.E) | (.E.E.E.E) | %87
"_dim." (.E[Q:1/4=28].E[Q:1/4=26].E[Q:1/4=24].E) | %88
!pp! !breath!!fermata![=A,CE]2!pp![Q:1/4=80]"_leggiermente""^ma non troppo presto" e'/4d'/4c'/4b/4=a/4_g/4f/4e/4d/4c/4B/4[Q:1/4=10]!breath!=A/4 !fermata!z | %89
"^Adagio"[Q:1/4=30]!p!"_espressivo" (.F.F.F.F) | (.F.F.F.F) | (.F.F.F.F) |"_dim." (.F.F) (.F.F) | %93
!pp! (.^F.F)(F=G) |!ppp! [G,^A,^CG]3!ff![Q:1/4=180]"^Presto" (=e' ||[K:D] g')e'c'e' | gc'eg | %97
 ce.G[Q:1/4=120] !>![G,CEG] | !fermata![F,CEF]3!ff![Q:1/4=180] (e' | g'e'c'e' | gc'eg | %101
 ce.G)[Q:1/4=120] !>![EGAc] | !fermata![DFAd]3[Q:1/4=150] z | z (cec | gec'g) | %105
[Q:1/4=120] .[ee'].[cc'].[gg'][Q:1/4=80] .[CG^Ac] | !fermata![D^GBd]3!p! [B,D] || %107
[M:6/8][Q:1/4=250]"^piu presto" [^A,C]2 z [CE]2 z | [B,D]2 z [DB]2 z |"_cresc." [C^A]2 z [Ec]2 z | %110
 [DB]2 z [Bd]2 z | [^Ac]2 z [ce]2 z | [Bd]2 z [Bdb]2 z | [^Ac^a]2 z [cec']2 z | %114
 [Bdb]2 z [dbd']2 z | [c^ac']2 z [ec'e']2 z | [dbd']2 z [Bdb]2 z | [^Ac^a]2 z !>![GBg]2 z | %118
 [F^Af]2 z !>![GBg]2 z | [F^Af]2 z !>![GBg]2 z | [F^Af]2 z !>![GBg]2 z | %121
!ff! !breath![F^Af]2 z z2 z | z6 | z6 | z2 z"^legato" (=cB=A | GFE ^DAF) | =cA^d cfd | agf!p! (g3 | %128
 e3 ^d3 | f3"_cresc." e3 | g3 f3 | a3!f! ^g3) |!ff! b3 b z d | ^cBA ^GdB | ^ed^g ebg | ba^g!p! a3 | %136
 f3 ^e3 | ^g3"_cresc." f3 | a3 ^g3 | b3!f! ^a3 |!ff! c'3 gfe | dcB ^Aec | ge^a ec'a | %143
 e'd'c'!p! d'3 | b3 ^a3 | c'3"_cresc." b3 | d'3 c'3 | e'3!ped!!f! e'3!ped-up! |!ff! e'^ac' gae | %149
 gce ^Aec | ge^a gc'a | e'^ac' gc'a!ped!!ped-up! | e'!ped!^ac' fae | fce fae | fe^a fc'a | %155
 e'^ac' fc'a!ped-up! || %156
[M:2/4][Q:1/4=35]!ff!"^Adagio" [fc'e']!ped!!p!"_espressivo" (.F.F!ped-up!.F) | (.F.F.F.F) | %158
 (.G.G.G.G) | (.^A.A.A.A) | (.c.c.c[Q:1/4=30].c) | %161
"^molto  cres." e3!p![Q:1/4=27] (.^d/!p![Q:1/4=23].c/) || %162
[K:B][M:2/4][Q:1/4=35]"^Allegretto""_dolce"!p! BBB (A/>B/) | cc(c"_cresc."d) | %164
!mp!!>(! (d!p!B)!>)!(B"_cresc."e) |!mp!!>(! (ec)!>)!!p! (3(c/f/e/ (3d/e/c/) |!p! BBB (A/>B/) | %167
 cc(c"_cresc."d) |!mp!!>(! (d!p!B)!>)!(B"_cresc."e) |!mp!!>(! ec!>)!!p! [DFB]2 | %170
 z/4[Q:1/4=45] B/<b/ f/<d/ d/<B/ A/4B/- | B/4 c/<c'/ a/<f/ e/<c/ c/4d/- | %172
 d/4 d/<d'/ b/<B/ B/<b/ e/4e'/- | e'/4 e'/<c'/ c'/<a/ a/<f/ e/4c/- | c/4 B/<b/ f/<d/ d/<B/ A/4B/- | %175
 B/4 c/<c'/ a/<f/ e/<c/ c/4d/- | d/4 d/<d'/ b/<B/ B/<b/ e'/4e/- | %177
 e/4 e'/<e/ c'/<c/ b/4B/- B/"_dolce"!p! (F/4A/4 | B/F/) z/ (F/4A/4 B/F/) z/ (F/4B/4 | %179
 c/F/) z/ (F/4B/4 c/F/) z/ (F/4c/4 | d/B/) z/ (G/4A/4 B/G/) z/ (G/4d/4 | %181
 e/G/) z/ (c/4d/4 e/A/) z/ (f/4a/4 |"_cresc." b/f/) z/ (f/4a/4 b/f/) z/ (f/4b/4 | %183
!mp!"_cresc."!<(! c'/f/) z/ (f/4b/4!mp! c'/f/) z/ (f/4c'/4 | %184
!mp! d'/b/) z/ (g/4a/4!mp! b/g/) z/ (g/4d'/4 | %185
!mp! e'/c'/) z/ (c'/4f'/4!mp! d'/b/) z/[Q:1/4=40] (F/4!<)!!f!A/4) | %186
!f![Q:1/4=45] (6:4:6B/4f/4d/4b/4f/4d/4 (6:4:6B/4f/4d/4b/4f/4d/4 (6:4:6B/4f/4d/4b/4f/4d/4 (6:4:6a/4f/4d/4b/4f/4d/4 | %187
 (6:4:6c/4a/4f/4c'/4a/4f/4 (6:4:6c/4a/4f/4c'/4a/4f/4 (6:4:6c/4a/4f/4c'/4a/4f/4 (6:4:6d/4b/4f/4d'/4b/4f/4 | %188
 (6:4:6d/4b/4f/4d'/4b/4f/4 (6:4:6B/4g/4e/4b/4g/4e/4 (6:4:6B/4g/4e/4b/4g/4e/4 (6:4:6e/4c'/4g/4e'/4c'/4g/4 | %189
 (6:4:6e/4c'/4g/4e'/4c'/4g/4 (6:4:6e/4a/4e/4c'/4a/4e/4 (6:4:6c/4e/4c/4A/4f/4e/4!>(! (6:4:6c/4e/4c/4A/4e/4!mf!c/4!>)! | %190
!f! (6:4:6B/4f/4d/4b/4f/4d/4 (6:4:6B/4f/4d/4b/4f/4d/4 (6:4:6B/4f/4d/4b/4f/4d/4 (6:4:6a/4f/4d/4b/4f/4d/4 | %191
 (6:4:6c/4a/4f/4c'/4a/4f/4 (6:4:6c/4a/4f/4c'/4a/4f/4 (6:4:6c/4a/4f/4c'/4a/4f/4 (6:4:6d/4b/4f/4d'/4b/4f/4 | %192
 (6:4:6d/4b/4f/4d'/4b/4f/4 (6:4:6B/4g/4e/4b/4g/4e/4 (6:4:6B/4g/4e/4b/4g/4e/4 (6:4:6e/4c'/4g/4e'/4c'/4g/4 | %193
 (6:4:6e/4c'/4g/4e'/4c'/4a/4 (6:4:6e/4a/4e/4c'/4a/4e/4 (6:4:6d/4f/4d/4!>(!b/4f/4d/4!>(! (6:4:6B/4F/4D/4B,/4D/4!mf!F/4!>)!!>)! | %194
!p! B z3/4"^espressivo" B/4 (c/B/A/B/) | z z3/4 c/4 (d/c/=e/d/) |!p! z z3/4 TB/4 (=c/B/f/e/) | %197
 z z3/4 c/4 (f/c/e/c/) | z z3/4 [Bb]/4 ([cc']/[Bb]/[Aa]/[Bb]/) | %199
 z z3/4 [cc']/4 ([dd']/[cc']/[=e=e']/[dd']/) | z z3/4 [Bb]/4 ([=c=c']/[Bb]/[ff']/[ee']/) | %201
 z z3/4 [cc']/4 ([dd']/[Aa]/[cc']/[Bb]/) | %202
!p!"_dolce" z/ [Bb]/ z/ [dd']/ z/!<(! (F/4f/4) (A/4!<)!!mp!!>(!a/4)(B/4b/4)!>)! | %203
!p! z/ [cc']/ z/ [ee']/ z/!<(! (F/4f/4) (c/4!<)!!mp!!>(!c'/4)(d/4d'/4)!>)! | %204
!p!!p! z/ d/ z/ [Bb]/ z/!<(! (B/4b/4) (G/4!<)!!mp!!>(!g/4)(e/4e'/4)!>)! | %205
!p!!p! z/ e/ z/ [cc']/ z/!<(! (c/4c'/4) (A/4!<)!!mp!!>(!a/4)(f/4f'/4)!>)! | %206
!p! z/ [Bb]/ z/ [dd']/ z/!<(! (F/4f/4) (A/4!<)!!mp!!>(!a/4)(B/4b/4)!>)! | %207
!p! z/ [cc']/ z/ [ee']/ z/!<(! (F/4f/4) (c/4!<)!!mp!!>(!c'/4)(d/4d'/4)!>)! | %208
!p!!p! z/ d/ z/ [Bb]/ z/!<(! (B/4b/4) (G/4!<)!!mp!!>(!g/4)(e/4e'/4)!>)! | %209
!p!!p! z/ e/ z/ [cc']/ z/!<(! (c/4c'/4) (A/4!<)!!mp!!>(!a/4)(f/4f'/4)!>)! | %210
!f! (6:4:6B,/4F/4D/4F/4D/4F/4 (6:4:6B,/4F/4D/4F/4D/4F/4 (6:4:6B,/4F/4D/4F/4D/4F/4 (3(=G/4[CE]/4G/4 (3F/4D/4F/4) | %211
 (6:4:6A,/4F/4E/4F/4E/4F/4 (6:4:6A,/4F/4E/4F/4E/4F/4 (6:4:6A,/4F/4E/4F/4E/4F/4 (3(=G/4B,/4G/4 (3F/4B,/4F/4) | %212
 (6:4:6B,/4F/4D/4F/4D/4F/4 (6:4:6D/4=A/4F/4A/4F/4A/4 (6:4:6D/4A/4F/4A/4F/4A/4 (6:4:6B,/4^G/4E/4G/4E/4G/4 | %213
 (6:4:6B,/4G/4E/4G/4E/4G/4 (6:4:6^A,/4=G/4E/4G/4E/4G/4 (6:4:6A,/4F/4C/4F/4C/4F/4 (6:4:6A,/4F/4C/4F/4C/4F/4 | %214
 (6:4:6B,/4F/4D/4F/4D/4F/4 (6:4:6B,/4F/4D/4F/4D/4F/4 (6:4:6B,/4F/4D/4F/4D/4F/4 (3(=G/4[CE]/4G/4(3F/4D/4F/4) | %215
 (6:4:6A,/4F/4E/4F/4E/4F/4 (6:4:6A,/4F/4E/4F/4E/4F/4 (6:4:6A,/4F/4E/4F/4E/4F/4 (3(=G/4B,/4G/4(3F/4B,/4F/4) | %216
 (6:4:6B,/4F/4D/4F/4D/4F/4 (6:4:6D/4=A/4F/4A/4F/4A/4 (6:4:6D/4A/4F/4A/4F/4A/4 (6:4:6B,/4^G/4E/4G/4E/4G/4 | %217
 (6:4:6B,/4G/4E/4G/4E/4G/4 (6:4:6C/4^A/4E/4A/4E/4A/4 (6:4:6D/4B/4F/4D/4d/4B/4 (6:4:6F/4f/4e/4d/4e/4c/4 | %218
 B/!>![DFB]/[DFB]/[DFB]/ [DFB]/!>![DFB]/[DFA]/[DFB]/ | %219
 [EFc]/!>![EFc]/[EFc]/[EFc]/ [EFc]/!>![EFc]/[DFd]/[DFd]/ | %220
 [DFd]/!>![DFd]/[DFB]/[DFB]/ [EGB]/!>![EGB]/[EGBe]/[EGBe]/ | %221
 [EFAe]/!>![EFAe]/[EFAc]/[EFAc]/ [EFAc]/ !>![FAcf]/[FAcf]/[FAcf]/ | %222
 [FBf]/ !>![dfb]/[dfb]/[Bdfb]/ [Bdfb]/!>![Bdfb]/[Acea]/[Bdfb]/ | %223
 [cefc']/ !>![efc']/[efc']/[efc']/ [cefc']/ !>![cefc']/[dfd']/[dfd']/ | %224
 [dfd']/!>![dfd']/[dfb]/[dfb]/ [egb]/ !>![egb]/[egbe']/[egbe']/ | %225
 [efae']/ !>![efae']/[efac']/[efac']/ [efac']/!<(! !>![efac']/[efac']/[Q:1/4=30][efac']/!<)![Q:1/4=35][Q:1/4=25] | %226
[Q:1/4=15]!ff! !fermata![efac']!pp![Q:1/4=80] e'/4d'/4c'/4b/4a/4g/4f/4e/4d/4c/4B/4[Q:1/4=1]A/4[Q:1/4=30] !fermata!z | %227
[Q:1/4=90]!f! c/4B/4A/4G/4F/4E/4D/4[I:staff +1]C/4B,/4A,/4G,/4 F,[Q:1/4=15]!p![Q:1/4=90][I:staff -1] f'/4e'/4d'/4c'/4b/4a/4g/4f/4e/4d/4c/4B/4[Q:1/4=15] !fermata!z!f![Q:1/4=90] =d/4c/4B/4=A/4=G/4F/4E/4=D/4C/4B,/4[Q:1/4=15] !fermata!z!p![Q:1/4=90] =f'/4e'/4=d'/4=c'/4b/4=a/4=g/4=f/4e/4=d/4=c/4B/4[Q:1/4=20] !fermata!z x3/4 | %228
[K:C]!p!"_leggiermente""^non troppo presto"[Q:1/4=90] d/4c/4B/4A/4G/4F/4E/4D/4[I:staff +1]C/4B,/4A,/4G,/4F,/4E,/4D,/4C,/4B,,/4A,,/4G,,/4A,,/4B,,/4C,/4D,/4E,/4F,/4G,/4A,/4B,/4[I:staff -1]C/4D/4E/4F/4G/4A/4B/4c/4d/4e/4f/4g/4a/4b/4!<(!c'/4d'/4e'/4f'/4[Q:1/4=85]!p!!>(!g'/4!<)!f'/4[Q:1/4=80]e'/4d'/4[Q:1/4=75]c'/4b/4[Q:1/4=70]a/4g/4[Q:1/4=65]f/4e/4[Q:1/4=60]d/4c/4[Q:1/4=50]B/4A/4[Q:1/4=40] (3(.G[Q:1/4=30].A[Q:1/4=25]!p!.B)!>)! | %229
[Q:1/4=40]"_dolce""^tempo primo" ccc B/>c/ | dd(de) | (ec)(cf) | (fd)(d"_cresc."[Bb]) | %233
 ([Bb][^G^g])([Gg][^e^gb^e']) | ([^e^gb^e'][B^ceb][^Ac=e^a][=e^a^c'=e']) | %235
!f! [^d^fb^d'][Be^gb][^FB^d^f][^A^ce^a] || %236
[K:B]!f! [Bdb]/[Q:1/4=45] !>![Bdfb]/[Bdfb]/[Bdfb]/ [Bdfb]/!>![Bdfb]/[Bceb]/[Bdfb]/ | %237
 [Begb]/!>![egb]/[egb]/[egb]/ [egb]/!>![egb]/[ef^a]/[egb]/ | %238
 [efac']/!>![efac']/[efac']/[efac']/ [efac']/!>![efac']/[efac']/[efac']/ | %239
!f! [dfb]/ !>![Bdfb]/[Bdfb]/[Bdfb]/ [Bdfb]/!>![Bdfb]/[Bdfb]/[Bdfb]/ | %240
 [Bdfb]/!>![Bdfb]/[Bdfb]/[Begb]/ [Bf=ab]/!>![dfab]/[dfac']/[dfbd']/ | %241
 [egbe']/!>![egbe']/[egbe']/[egbe']/ [egbe']/!>![egbe']/[ef^ae']/[egbe']/ | %242
!f! [efc'e']/ !>![fc'e']/[fc'e']/[fc'e']/ [fc'e']/!>![fc'e'f']/[fc'e'f']/[fc'e'f']/ | %243
!f! [fbd'f']/ !>![bd'f']/[bd'f']/[bd'f']/!f! [fbd'f']/ !>![fbd'f']/[fbd'f']/[fbd'f']/ | %244
 [fc'e'f']/ !>![fc'e'f']/[fc'e'f']/[fc'e'f']/!<(! [fc'e'f']/[Q:1/4=40] !>![fac'f']/[Q:1/4=35][fac'f']/[Q:1/4=30][fac'f']/!<)![Q:1/4=25] | %245
[Q:1/4=20]!fff! !fermata![fac'f']2!p![Q:1/4=90] e'/4d'/4c'/4b/4a/4g/4f/4e/4d/4c/4B/4A/4[Q:1/4=25] !fermata!z!f![Q:1/4=80] f/4e/4d/4c/4B/4A/4G/4F/4E/4D/4C/4[Q:1/4=5] B,/ z/!p![Q:1/4=30]"^adagio" (.[FB].[FB])(.[FA]/.[FB]/)[Q:1/4=9999] x/4 | %246
[Q:1/4=30]!>(! (.[=Gc].[Gc].[Gc].[Fd])!>)! |"_piu piano"!p!!>(! (.[Fd].[^GB].[=GB].[GBe])!>)! | %248
 (.[=GBe].[Gc].[Gc])!pp![Fcf]!ped! | [Fcf] z z!pp![Q:1/4=20] [DFd]!ped-up!!ped! | %250
 [DFd] z z [A,Ec]!ped-up!!ped! | [A,Ec] z z!f![Q:1/4=30]!<(! (3b/4!ped-up!a/4g/4 f/8e/8d/8c/8!<)! | %252
[Q:1/4=20] B z z2 |] %253
V:2
 z2 z !fermata!z!f! C/4B,/4A,/4G,/4^F,/4E,/4D,/4C,/4B,,/4A,,/4G,,/4^F,,/4 !breath!!fermata!z (3^F,A,C (3D,A,C | %1
 (3G,B,D (3C,A,C (3D,G,B, (3D,^F,C | %2
 [G,B,]2 z2 z x/4 !fermata!z B,/4_A,/4G,/4=F,/4=E,/4_D,/4C,/4B,,/4_A,,/4G,,/4=F,,/4 =E,, !breath!!fermata!z (3=E,G,B, (3C,G,B, | %3
 (3F,_A,C (3B,,G,B, (3C,F,A, (3C,=E,B, | [F,_A,]2- [F,A,]7/4 |[K:Ab][M:2/4] z/4 | %6
 [D,,D,]-[D,,D,]/ z/ [D,,D,]-[D,,D,]/ z/ | [D,,D,]-[D,,D,]/ z/ [D,,D,]-[D,,D,]/ z/ | %8
 [F,A,D]-[F,A,D]/ z/ [_G,B,D]-[G,B,D]/ z/ | %9
 [=G,B,]-[G,B,]/4 z/4 z/4 [A,C]/4 !fermata![A,C]2 x4 x3 x x/ !fermata!z7/4 x/ z/4 | %10
[K:treble] [DF]-[DF]/ z/ [DE_G]-[DEG]/ z/ | [DE_G]-[DEG]/ z/ [DF]-[DF]/ z/ | %12
 [DF]-[DF]/ z/[K:bass] [_G,B,DE]-[G,B,DE]/ z/ | [=G,B,D]3/2 z/ [A,C]2 | %14
 [=A,CE]7/4[A,CE]/4 !fermata![A,CE]2 | %15
[K:Ab] x/ x/8 z2 F,/8G,/8=A,/8B,/8[I:staff -1]C/8=D/8=E/8F/8=G/8=A/8B/8c/8[I:staff +1][K:treble][I:staff -1]=d/8=e/8f/8g/8=a/8b/8c'/8=d'/8=e'/8!f!f'/8[I:staff +1] !fermata!z x/8 || %16
[K:Bb][M:6/8][K:bass] z | B,,B,B, B,,B,[B,CE] | B,,B,B, B,,B,[C,C] | C,CC C,CC | F,,F,F, E,,E,E, | %21
 E,,E,E, D,,D,D, | C,,[C,E,][C,E,] B,,B,[E,B,E] | [F,B,D][F,B,D][F,B,D] [F,CE][F,CE][F,CE] | %24
 !>![B,D]3 E,,E,E, | E,,E,E, D,,D,D, | C,,[C,E,][C,E,] B,,B,[E,B,E] | %27
 [E,B,E][E,B,E][E,B,E] [E,B,E][E,B,E][E,B,E] | [E,B,E][E,B,E][E,B,E] [E,B,E][E,B,E][E,B,E] | %29
 [E,B,E]3 [E,B,E]3 | [E,B,E]3 [E,B,E]3 | [D,B,D]3 z2 z | z2 z (_A,3 | D,3 F,3 | B,,3 E,2 =A,, | %35
 B,,2) z z2 z | z2 z (B,2 _A,) | _A,3 B,3- |!mp! B,6 | %39
 !fermata![B,,B,]3 !fermata![=A,,^C,=E,=A,]3 || %40
[K:F] x4 x2 x/ !>![A,,^C,E,A,] z z ^F,/4A,/4 (5:4:5C/4A,/4F,/4A,/4C/4 x2 | %41
 x3 !>![D,,^F,,A,,D,] z z x4 x3/2 !>![^G,,^G,] !>![A,,D,=F,A,] z z x/ | %42
 A,,/4^C,/4 (5:4:5E,/4C,/4A,,/4C,/4E,/4 (5:4:5G,/4E,/4C,/4E,/4G,/4 (5:4:5^C/4G,/4E,/4G,/4C/4 (5:4:5E/4C/4G,/4C/4E/4[K:treble] (5:4:5G/4E/4^C/4E/4G/4 (5:4:5^c/4G/4E/4G/4c/4 (5:4:5e/4c/4G/4c/4e/4 g !fermata!z2 x/ || %43
[M:2/4][K:bass] A, | D,/D/F,/[I:staff -1]F/[I:staff +1] x2 | (!>!F,D,^C,D,) | (!>!^C,A,,=B,,C,) | %47
 [D,,D,] z !fermata!z2 | z2 z A,,/A,/ | D,,/D,/F,,/F,/ A,,/A,/D,/D/ | F,/F/D,/D/ ^C,/^C/D,/D/ | %51
 E,/E/D,/D/ =C,/=C/=B,,/=B,/ | [A,,A,]2 z2 | !>!F,[A,C][A,C][A,C] | !>!F,[A,C][A,C][A,C] | %55
 !>!F,[A,C][A,C][A,C] | !>!E,[G,_B,^C][G,B,C][G,B,C] | !>!E,^C,^B,,C, | %58
 !>!A,/[I:staff -1]A/[I:staff +1]G,/[I:staff -1]G/[I:staff +1] F,/F/E,/E/ | D,/D/F,/F/ x2 | %60
 D,2 z =C, | !>!F,[A,C][A,C][A,C] | !>!F,[A,C][A,C][A,C] | !>!F,[A,C][A,C][A,C] | %64
 !>!E,[G,_B,^C][G,B,C][G,B,C] | (!>!E,^C,^B,,C,) | (!>!A,,G,,F,,E,,) | %67
 D,,/D,/F,,/F,/ A,,/A,/D,/D/ | E,/E/A,,/A,/ ^C,/^C/A,,/A,/ |[K:F] D,/D/A,,/A,/ F,/F/A,,/A,/ | %70
 E,/E/A,,/A,/ ^C,/^C/A,,/A,/ | D,[A,D] z[K:treble] [A,DF] | z [A,^CEG] z [A,CEG] | %73
 z [A,DF] z [A,DF] | z [A,^CEG] z [A,CEG] |[K:bass] D,,/D,/F,,/F,/ A,,/A,/D,/D/ | %76
 E,/E/A,,/A,/ ^C,/^C/A,,/A,/ | z[K:treble] [CF] z [CFA] | z [A,^CEG] z [A,CEG] | %79
[K:bass] D,,/D,/F,,/F,/ A,,/A,/D,/D/ | E,/E/A,,/A,/ ^C,/^C/A,,/A,/ | %81
 ^C,/^C/A,,/A,/ B,,/B,/G,,/G,/ | ^C,/^C/A,,/A,/ B,,/B,/G,,/G,/ | %83
 !fermata![B,,^C,E,B,]2 !fermata![B,,_D,_E,G,B,]2 ||[K:Ab][M:2/4] E,3 E,- | E,3 E,- | E,3 E,- | %87
 E,3/2 z/ E,3/2 z/ | !fermata![F,,E,]2 x x/4 !fermata!z2 x/4 x/ | F,3 F,- | F,3 F,- | F,3 F,- | %92
 F,3/2 z/ ^E,3/2 z/ | [^F,,^F,]3 [=E,,=E,] | [=E,,=E,]3[K:treble] (=e ||[K:D] g)e^ce | GcEG | %97
 CE.G,[K:bass] [B,,,B,,] | !fermata![^A,,,^A,,]3[K:treble] (e | gece | GcEG | %101
 CE.G,)[K:bass] [A,,A,] | !fermata![D,,D,]3 .[E,E] | .[G,G].[E,E].[C,C].[E,E] | %104
 .[G,,A,].[C,C].[E,,E,].[G,,G,] | .[C,,C,].[E,,E,].E,,.E,, | !fermata![^E,,,^E,,]3 z || %107
[M:6/8] z F,,,F,, z F,,,F,, | z F,,,F,, z F,,,F,, | z F,,,F,, z F,,,F,, | z F,,,F,, z F,,,F,, | %111
 z F,,,F,, z F,,,F,, | z F,,,F,, z F,,,F,, | z F,,,F,, z F,,,F,, | z F,,,F,, z F,,,F,, | %115
 z F,,,F,, z F,,,F,, | z F,,,F,, z F,,,F,, | z F,,,F,, z F,,,F,, | z F,,,F,, z F,,,F,, | %119
 z F,,,F,, z F,,,F,, | z F,,,F,, z F,,,F,, | [F,,,F,,]2 z"^legato" (G,F,E, | D,C,B,, ^A,,E,C,) | %123
 G,E,^A, G,EC | GFE ^DEF | EE,G, F,=CA, | F,A,F, ^D,A,F, | ^D,B,F, (E,3 | G,3 F,3 | A,3 G,3 | %130
 E,3 ^D,3 | F,3 ^E,3) | ^E,3 D^CB, | A,^G,F, ^E,B,G, |[K:treble] DB,^E D^GE | ^GF^E[K:bass] F,3 | %136
 A,3 ^G,3 | B,3 A,3 | F,3 ^E,3 | ^G,3 =G,3 | G,3[K:treble] ^A,=AG | FED[K:bass] G,EC | %142
 E,C^A, C,A,G, | ^A,,^A,F, B,,B,F, | D,B,F, C,^A,F, | E,CF, D,B,F, | B,,B,F, A,,^A,F, | %147
 ^A,,^A,G, A,,A,G, | !5!^A,,!2!E,!4!C, !1!G,!5!E,!2!^A, | !3!G,!1!C!3!^A, !1!EC!3!A, | %150
 G,^A,E, G,C,E, | ^A,,E,C, G,E,C, |"^*" !5!^A,,!2!E,!4!C, !1!F,!2!E,!1!^A, | %153
 !5!F,!2!C!3!^A, !1!E!2!C!3!A, | !5!F,!1!C^A, !5!E,A,F, | !5!C,F,E, ^A,,E,C, || %156
[M:2/4]"_*Fingering by Beethoven." [^A,,,^A,,]2 z ([^A,,^A,] | [=A,,=A,]2) z ([A,,A,] | %158
 [G,,G,]2) z ([G,,G,] | [E,,E,]2) z E,- | ^A,2 z A,- | A, [F,^A,]3 || %162
[K:B][M:2/4] (3D,/F,/B,/ (3D,/F,/B,/ (3D,/F,/B,/ (3D,/F,/B,/ | %163
 (3E,/F,/A,/ (3E,/F,/A,/ (3E,/F,/A,/ (3D,/F,/B,/ | (3D,/F,/B,/ (3E,/G,/B,/ (3E,/G,/B,/ (3C,/G,/C/ | %165
 (3C,/G,/C/ (3F,/!p!A,/C/ (3F,/A,/C/ (3F,/G,/A,/ | %166
 (3D,/F,/B,/ (3D,/F,/B,/ (3D,/F,/B,/ (3D,/F,/B,/ | %167
 (3E,/F,/A,/ (3E,/F,/A,/ (3E,/F,/A,/ (3D,/F,/B,/ | (3D,/F,/B,/ (3E,/G,/B,/ (3E,/G,/B,/ (3C,/G,/C/ | %169
 (3F,/A,/C/ (3F,/!p!G,/A,/ (3B,,/D,/F,/ (3B,/F,/D,/ | %170
 B,,/ z/4 .[DF]/4 .[B,D]/z/4.[DF]/4 .[B,D]/z/4.[DF]/4 .[CE]/z/4.[B,D]/4 | %171
 .[F,A,]/z/4.[A,C]/4 .[F,A,]/z/4.[A,C]/4 .[F,A,]/z/4.[A,C]/4 .[B,,F,]/z/4.[F,B,]/4 | %172
 .[B,,F,]/z/4.[F,B,]/4 .[E,G,]/z/4.[G,B,]/4 .[E,G,]/z/4.[G,B,]/4 .[C,G,]/z/4.[G,C]/4 | %173
 .[F,A,]/z/4.[A,C]/4 .[F,A,]/z/4.[A,C]/4 .[F,A,]/z/4.[F,A,]/4 .[G,B,]/z/4.[A,C]/4 | %174
 .[B,D]/z/4.[DF]/4 .[B,D]/z/4.[DF]/4 .[B,D]/z/4.[DF]/4 .[CE]/z/4.[B,D]/4 | %175
 .[F,A,]/z/4.[A,C]/4 .[F,A,]/z/4.[A,C]/4 .[F,A,]/z/4.[A,C]/4 .[B,,F,]/z/4.[F,B,]/4 | %176
 .[B,,F,]/z/4.[F,B,]/4 .[E,G,]/z/4.[G,B,]/4 .[E,G,]/z/4.[G,B,]/4 .[C,G,]/z/4.[G,C]/4 | %177
 .[F,A,]/z/4.[A,C]/4 .[F,A,]/z/4.[F,A,]/4 .[B,,B,]/z/4.[D,F,]/4 .[B,,D,]/ z/ | %178
 z/ (D,/4E,/4 F,/D,/) z/ (D,/4E,/4 F,/D,/) | z/ F,3/2 z/ F,3/2 | %180
 z/ F,/4A,/4 B,/E,/ z/ (G,/4A,/4 B,/^B,/) | z/ (C/4D/4 E/A,/) z/ (C/4D/4 E/C/) | %182
[K:treble] z/ (D/4E/4 F/D/) z/ (D/4E/4 F/D/) | z/ F3/2 z/ F3/2 | %184
 z/ (F/4A/4 B/!4!E/) z/ (G/4A/4 B/^B/) | z/ (c/4d/4 e/A/) z/ (d/4e/4 f/d/) | %186
[K:bass] .B,,/.F/.D/.B,/ .F,/.F,/.D,/.B,,/ | .F,,/.E/.C/.A,/ .F,/.F,,/.B,,/.B,/ | %188
 .B,,/.B,/.E,/.E/ .E,/.E/.C,/.C/ | .C,/.C/.F,/.F/ .F,,/.F,/.F,,/.F,/ | %190
 .B,,/.B,/.F,/.D,/ .B,,/.F,,/.D,,/.B,,,/ | .[F,,,F,,]/ .E/.C/.A,/ .F,/.F,,/.B,,/.B,/ | %192
 .B,,/.B,/.E,/.E/ .E,/.E/.C,/.C/ | .C,/.C/.F,/.F/ .B,,/.B,/ z | %194
"_legato" (3(B,/D/F/ (3^E/F/D/ (3B,/D/F/ (3D/B,/F,/) | %195
 (3(A,/C/F/ (3^E/F/[A,C]/ (3F,/A,/C/ (3F,/B,/D/) | %196
 (3(G,/B,/D/ (3^^C/D/B,/) (3(G,/B,/D/ (3E,/G,/^C/) | %197
 (3(F,/A,/C/ (3^B,/C/A,/ (3F,/A,/C/ (3F,/A,/E/) | (3(=B,/D/F/ (3^E/F/D/ (3B,/D/F/ (3D/B,/F,/) | %199
 (3(A,/C/F/ (3^E/F/[A,C]/ (3F,/A,/C/ (3F,/B,/D/) | %200
 (3(G,/B,/D/ (3^^C/D/B,/) (3(G,/B,/D/ (3E,/G,/^C/) | %201
 (3(F,/A,/C/ (3D/E/A,/ (3F,/B,/D/ (3D,/F,/B,/) | %202
 B,,/4F,/4D/4F,/4 B,,/4F,/4D/4F,/4 B,,/4F,/4D/4F,/4 B,,/4F,/4D/4F,/4 | %203
 A,,/4F,/4C/4F,/4 A,,/4F,/4C/4F,/4 A,,/4F,/4C/4F,/4 A,,/4F,/4C/4F,/4 | %204
 B,,/4F,/4D/4F,/4 B,,/4F,/4D/4F,/4 E,/4G,/4B,/4G,/4 E,/4G,/4B,/4G,/4 | %205
 C,/4G,/4E/4G,/4 C,/4G,/4E/4G,/4 F,/4A,/4E/4C/4 E/4C/4E/4C/4 | %206
 B,,/4F,/4D/4F,/4 B,,/4F,/4D/4F,/4 B,,/4F,/4D/4F,/4 B,,/4F,/4D/4F,/4 | %207
 A,,/4F,/4C/4F,/4 A,,/4F,/4C/4F,/4 A,,/4F,/4C/4F,/4 A,,/4F,/4C/4F,/4 | %208
 B,,/4F,/4D/4F,/4 B,,/4F,/4D/4F,/4 E,/4G,/4B,/4G,/4 E,/4G,/4B,/4G,/4 | %209
 C,/4G,/4E/4G,/4 F,/4A,/4E/4A,/4 B,,/4F,/4D/4F,/4 B,,/4F,/4D/4F,/4 | %210
 (.B,,,.B,,,.B,,,) (!>!A,,,/B,,,/) | (.C,,.C,,.C,,) !>!D,, | (.D,,.B,,,.B,,,.E,,) | %213
 (.E,,.C,,) (3.C,,/.F,,/.E,,/ (3.D,,/.E,,/.C,,/ | (.B,,,.B,,,.B,,,) (!>!A,,,/B,,,/) | %215
 (.C,,.C,,.C,,) !>!D,, | (.D,,.B,,,.B,,,.E,,) | (.E,,.C,,) B,,,2 | %218
 .B,,/!>!B,/- B,/A,/8G,/8F,/8E,/8 .D,/!>!F,/- F,/E,/8D,/8C,/8B,,/8 | %219
 .A,,/!>!C/- C3/4(3B,/8A,/8G,/8 .F,/!>!F,/- F,3/4(3E,/8D,/8C,/8 | %220
 .B,,/!>!B,/- B,3/4(3A,/8G,/8F,/8 .E,/!>!E,,/- E,,/F,,/8G,,/8A,,/8B,,/8 | %221
 .C,/!>!C/- C3/4(3B,/8A,/8G,/8 .F,/!>!F,,/- F,,/G,,/8A,,/8^B,,/8C,/8 | %222
 .D,/[K:treble] !>!B/- B/A/8G/8F/8E/8 .D/[K:bass] !>!F,/- F,/E,/8D,/8C,/8B,,/8 | %223
 .A,,/[K:treble] !>!c/- c3/4(3B/8A/8G/8 .F/[K:bass] !>!F,/- F,3/4(3E,/8D,/8C,/8 | %224
 .B,,/[K:treble] !>!B/- B3/4(3A/8G/8F/8 .E/[K:bass] !>!E,,/- E,,/F,,/8G,,/8A,,/8B,,/8 | %225
 .C,/[K:treble] !>!c/- c3/4(3B/8A/8G/8 .F/[K:bass] !>!F,/- F,/4G,/8A,/8 B,/8C/8D/8E/8 | %226
 !fermata!F !fermata!z2 x2 | %227
 x3 !fermata!z !fermata!z2 x3/4 x =D/4C/4B,/4=A,/4=G,/4F,/4E,/4=D,/4C,/4B,,/4 !fermata!z !fermata!z2 x3/4 x2 | %228
[K:C] x8 x4 x2 x x2 |[K:treble] (3C/E/G/ (3C/E/G/ (3C/E/G/ (3[DF]/G/[CE]/ | %230
 (3B,/D/G/ (3B,/D/G/ (3B,/D/G/ (3C/E/G/ |[K:bass] (3C/E/C/ (3A,/C/E/ (3A,/C/E/ (3F,/A,/D/ | %232
 (3G,/B,/D/ (3G,/B,/D/ (3G,/B,/D/ (3[^E,^G,]/B,/D/ | %233
 (3[^E,^G,]/B,/D/ (3[E,G,]/B,/D/ (3[E,G,]/B,/D/ (3G,/B,/^C/ | %234
 (3^G,/B,/^C/ (3G,/B,/C/ (3F,/^A,/C/ (3^F,/A,/C/ | %235
 B,,/4B,/4^F,/4B,/4 =E,/4B,/4^G,/4B,/4 ^F,/4^D/4B,/4D/4 F,/4E/4^C/4E/4 || %236
[K:B] .[B,,B,]/ !>!F/- F3/4(3E/8D/8C/8 .B,/!>!B,,/- B,,3/4(3=A,,/8G,,/8F,,/8 | %237
 .E,,/!>!B,/- B,3/4(3=A,/8G,/8F,/8 .E,/!>!E,/- E,3/4(3D,/8C,/8B,,/8 | %238
 .^A,,/!>!C/- C3/4(3B,/8^A,/8G,/8 .F,/!>!F,,/- F,,/G,,/8A,,/8B,,/8C,/8 | %239
 .D,/[K:treble] !>!F/- F3/4(3E/8D/8C/8[K:bass] .B,/!>!F,/- F,3/4(3E,/8D,/8C,/8 | %240
 .B,,/[K:treble] !>!=A/- A3/4(3G/8F/8E/8 .D/[K:bass] !>!B,,/- B,,3/4(3=A,,/8G,,/8F,,/8 | %241
 .E,,/[K:treble] !>!B/- B3/4(3=A/8G/8F/8 .E/[K:bass] !>!E,/- E,3/4(3D,/8C,/8B,,/8 | %242
 .^A,,/[K:treble] !>!c/- c3/4(3B/8^A/8G/8 .F/[K:bass] !>!F,,/- F,,/G,,/8A,,/8B,,/8C,/8 | %243
 .D,/[K:treble] !>!f/- f3/4(3e/8d/8c/8 .B/[K:bass] !>!F,/- F,/E,/8D,/8C,/8B,,/8 | %244
 .A,,/!>!C/- C3/4(3B,/8A,/8G,/8 .F,/[K:treble] F/- F/4F/8G/8 A/8B/8c/8d/8 | %245
 !fermata!e2 !fermata!z2 x2[K:bass] F/4E/4D/4C/4B,/4A,/4G,/4F,/4E,/4D,/4C,/4 B,,/ z/[K:treble] (.[B,D].[B,D])(.[CE]/.[B,D]/) x/4 | %246
 (.[A,E].[A,E].[A,E].[B,D]) | (.[B,D].E.E.E) |[K:bass] (.E.[=A,CE].[A,CE])[^A,CE] | %249
 [A,CE] z z [B,,F,B,] | [B,,F,B,] z z [F,,C,F,] | %251
 [F,,C,F,] z z z/ z/16!f! B,,/16C,/16D,/16E,/16F,/16G,/16A,/16 |!fff! .B,.B,,, z2 |] %253
V:3
 x12 | x5 x/4x/4x/4x/4 x2 | x15 | x5 x/4x/4x/4x/4 x2 | x15/4 |[K:Ab][M:2/4] x/4 | %6
 [DF]-[DF]/4 x3/4 [E_G]-[EG]/4 x3/4 | [E_G]-[EG]/4 x3/4 [DF]-[DF]/4 x3/4 | x4 | x15 | x4 | x4 | %12
 x4 | x4 | x4 |[K:Ab] x13/2 ||[K:Bb][M:6/8] x | x6 | x6 | x6 | x6 | x6 | x6 | x6 | x6 | x6 | x6 | %27
 x6 | x6 | x6 | x6 | x6 | x6 | x6 | x6 | x6 | x6 | x6 | x6 | x6 ||[K:F] x13 | x16 | x11 || %43
[M:2/4] x | x4 | x4 | x4 | x4 | x4 | x4 | x4 | x4 | x4 | x4 | x4 | x4 | x4 | x4 | x4 | x4 | x4 | %61
 x4 | x4 | x4 | x4 | x4 | x4 | x4 | x4 |[K:F] x4 | x4 | x4 | x4 | x4 | x4 | x4 | x4 | x4 | x4 | %79
 x4 | x4 | x4 | x4 | x4 ||[K:Ab][M:2/4] [A,C]2 z ([G,D] | [A,C]2) z ([A,C] | [G,D]2) z ([G,D] | %87
 [A,C]) z B, z | x6 | [B,D]2 z ([=A,E] | [B,D]2) z ([B,D] | [=A,E]2) z ([A,E] | %92
 [B,D]) z [=B,^C] z | [^A,^C]3 [=G,A,C] | x4 ||[K:D] x4 | x4 | x4 | x4 | x4 | x4 | x4 | x4 | x4 | %104
 x4 | x4 | x4 ||[M:6/8] x6 | x6 | x6 | x6 | x6 | x6 | x6 | x6 | x6 | x6 | x6 | x6 | x6 | x6 | x6 | %122
 x6 | x6 | x6 | x6 | x6 | x3 gGB | eGB ^dFB | fAB eGB | gGB fFB | aAB ^g^GB | b^Gd x3 | x6 | x6 | %135
 x3 aAc | fAc ^e^Gc | ^gBc fAc | aAc ^g^Gc | bBc ^a^Ac | c'^Ae x3 | x6 | x6 | x3 d'df | bdf ^acf | %145
 c'ef bdf | d'df c'cf | e'cg e'ce | x6 | x6 | x6 | x6 | x6 | x6 | x6 | x6 ||[M:2/4] x3 ([CE] | %157
 [=C^D]2) z ([CD] | [CE]2) z ([=CE] | [^CG]2) z [CG] | [EG]2 z [EG]- | [EG]!mp! !>![EF]3 || %162
[K:B][M:2/4] [DF][DF][DF][DF] | [EF][EF][EF][DF] | [DF][EG][EG][EGc] | [EGc][EA] [EA] z | %166
 [DF][DF][DF][DF] | [EF][EF][EF][DF] | [DF][EG][EG][EGc] | [EAc][EF] x2 | x4 | x4 | x4 | x4 | x4 | %175
 x4 | x4 | x4 | x4 | x4 | x4 | x4 | x4 | x4 | x4 | x4 | x4 | x4 | x4 | x4 | x4 | x4 | x4 | x4 | %194
 x4 | x4 | x4 | x4 | x4 | x4 | x4 | x4 | x4 | x4 | x4 | x4 | x4 | x4 | x4 | x4 | x4 | x4 | x4 | %213
 x4 | x4 | x4 | x4 | x4 | x4 | x4 | x4 | x4 | x4 | x4 | x4 | x4 | x5 | x3 !fermata!z x12 | %228
[K:C] x17 | x4 | x4 | x4 | x4 | x4 | x4 | x4 ||[K:B] x4 | x4 | x4 | x4 | x4 | x4 | x4 | x4 | x4 | %245
 x13 | x4 | x4 | x4 | x4 | x4 | x4 | x4 |] %253
V:4
 x12 | x8 | x15 | x8 | x15/4 |[K:Ab][M:2/4] x/4 | x4 | x4 | x4 | x15 |[K:treble] x4 | x4 | %12
 x2[K:bass] x2 | x4 | x4 | %15
[K:Ab] x21/8 F,,/8G,,/8=A,,/8B,,/8C,/8=D,/8=E,/8F,/8=G,/8=A,/8B,/8C/8[K:treble]=D/8=E/8F/8G/8=A/8B/8c/8=d/8=e/8f/8 x9/8 || %16
[K:Bb][M:6/8][K:bass] x | x6 | x6 | x6 | x6 | x6 | x6 | x6 | x6 | x6 | x6 | x6 | x6 | x6 | x6 | %31
 x6 | x6 | x6 | x6 | x6 | x6 | x3 (E,2 D,) | (D,3 E,2 B,,) | x6 ||[K:F] x13 | x16 | %42
 x9/2[K:treble] x13/2 ||[M:2/4][K:bass] A,, | D,,F,,A,,D, | x4 | x4 | x4 | x4 | x4 | x4 | x4 | x4 | %53
 F,4 | F,4 | F,4 | E,4 | x4 | !>!A,,G,,F,,E,, | D,,F,,A,,^C, | x4 | F,4 | F,4 | F,4 | E,4 | x4 | %66
 x4 | x4 | x4 |[K:F] x4 | x4 | x3[K:treble] x | x4 | x4 | x4 |[K:bass] x4 | x4 | x[K:treble] x3 | %78
 x4 |[K:bass] x4 | x4 | x4 | x4 | x4 ||[K:Ab][M:2/4] A,,2 z (B,, | A,,2) z (A,, | B,,2) z (B,, | %87
 A,,) z _G,, z | x6 | B,,2 z (C, | B,,2) z (B,, | C,2) z (C, | B,,) z ^G,, z | x4 | %94
 x3[K:treble] x ||[K:D] x4 | x4 | x3[K:bass] x | x3[K:treble] x | x4 | x4 | x3[K:bass] x | x4 | %103
 x4 | x4 | x4 | x4 ||[M:6/8] x6 | x6 | x6 | x6 | x6 | x6 | x6 | x6 | x6 | x6 | x6 | x6 | x6 | x6 | %121
 x6 | x6 | x6 | x6 | x6 | x6 | x3 E,EB, | G,EB, F,^DB, | A,FB, G,EB, | E,EB, ^D,^DB, | %131
 F,FB, ^E,^EB, | ^E,B,^G, x3 | x6 |[K:treble] x6 | x3[K:bass] F,FC | A,FC ^G,^EC | B,^GC A,FC | %138
 F,FB, ^E,^EB, | ^G,^GC =G,=GC | G,EC[K:treble] x3 | x3[K:bass] x3 | x6 | x3 (B,,3 | D,3) C,3 | %145
 E,3 D,3 | B,,3 ^A,,3 | ^A,,3 A,,3 | x6 | x6 | x6 | x6 | x6 | x6 | x6 | x6 ||[M:2/4] x4 | x4 | x4 | %159
 x3 E, | [^A,,E,]2 x [A,,E,]- | [A,,E,] [^A,,E,]3 ||[K:B][M:2/4] B,,B,,B,,B,, | A,,A,,A,,A,, | %164
 B,,E,E, x | x4 | B,,B,,B,,B,, | A,,A,,A,,A,, | B,,E,E, x | x4 | x4 | x4 | x4 | x4 | x4 | x4 | x4 | %177
 x4 | x/ B,,3/2 x/ B,,3/2 | x/ A,,3/2 x/ A,,B,,/ | x/ D,E,/ x/ E,3/2 | x/ E,F,/ x/ F,F,/ | %182
[K:treble] x/ B,3/2 x/ B,3/2 | x/ A,3/2 x/ A,B,/ | x/ DE/ x/ E3/2 | x/ EF/ x/ =B3/2 |[K:bass] x4 | %187
 x4 | x4 | x4 | x4 | x4 | x4 | x4 | x4 | x4 | x4 | x4 | x4 | x4 | x4 | x4 | x4 | x4 | x4 | x4 | %206
 x4 | x4 | x4 | x4 | x4 | x4 | x4 | x4 | x4 | x4 | x4 | x4 | x4 | x4 | x4 | x4 | %222
 x/[K:treble] x2[K:bass] x3/2 | x/[K:treble] x2[K:bass] x3/2 | x/[K:treble] x2[K:bass] x3/2 | %225
 x/[K:treble] x2[K:bass] x3/2 | x5 | C/4B,/4A,/4G,/4F,/4E,/4D,/4C,/4B,,/4A,,/4G,,/4 F,, x49/4 | %228
[K:C] x17 |[K:treble] x4 | x4 |[K:bass] x4 | x4 | x3 [^C,^E,] | [^C,^E,][C,E,] ^F,F, | x4 || %236
[K:B] x4 | x4 | x4 | x/[K:treble] x3/2[K:bass] x2 | x/[K:treble] x2[K:bass] x3/2 | %241
 x/[K:treble] x2[K:bass] x3/2 | x/[K:treble] x2[K:bass] x3/2 | x/[K:treble] x2[K:bass] x3/2 | %244
 x5/2[K:treble] x3/2 | x6[K:bass] x15/4[K:treble] x13/4 | x4 | x4 |[K:bass] x4 | x4 | x4 | x4 | %252
 x4 |] %253
V:5
 x12 | x8 | x15 | x8 | x15/4 |[K:Ab][M:2/4] x/4 | x4 | x4 | x4 | x15 |[K:treble] x4 | x4 | %12
 x2[K:bass] x2 | x4 | x4 |[K:Ab] x33/8[K:treble] x19/8 ||[K:Bb][M:6/8][K:bass] x | x6 | x6 | x6 | %20
 x6 | x6 | x6 | x6 | x6 | x6 | x6 | x6 | x6 | x6 | x6 | x6 | x6 | x6 | x6 | x6 | x6 | x6 | x6 | %39
 x6 ||[K:F] x13 | x16 | x9/2[K:treble] x13/2 ||[M:2/4][K:bass] x | x4 | x4 | x4 | x4 | x4 | x4 | %50
 x4 | x4 | x4 | x4 | x4 | x4 | x4 | x4 | x4 | x4 | x4 | x4 | x4 | x4 | x4 | x4 | x4 | x4 | x4 | %69
[K:F] x4 | x4 | x3[K:treble] x | x4 | x4 | x4 |[K:bass] x4 | x4 | x[K:treble] x3 | x4 | %79
[K:bass] x4 | x4 | x4 | x4 | x4 ||[K:Ab][M:2/4] x4 | x4 | x4 | x4 | x6 | x4 | x4 | x4 | x4 | x4 | %94
 x3[K:treble] x ||[K:D] x4 | x4 | x3[K:bass] x | x3[K:treble] x | x4 | x4 | x3[K:bass] x | x4 | %103
 x4 | x4 | x4 | x4 ||[M:6/8] x6 | x6 | x6 | x6 | x6 | x6 | x6 | x6 | x6 | x6 | x6 | x6 | x6 | x6 | %121
 x6 | x6 | x6 | x6 | x6 | x6 | x6 | x6 | x6 | x6 | x6 | x6 | x6 |[K:treble] x6 | x3[K:bass] x3 | %136
 x6 | x6 | x6 | x6 | x3[K:treble] x3 | x3[K:bass] x3 | x6 | x6 | x6 | x6 | x6 | x6 | x6 | x6 | x6 | %151
 x6 | x6 | x6 | x6 | x6 ||[M:2/4] x4 | x4 | x4 | x4 | x4 | x4 ||[K:B][M:2/4] x4 | x4 | x4 | x4 | %166
 x4 | x4 | x4 | x4 | x4 | x4 | x4 | x4 | x4 | x4 | x4 | x4 | x4 | %179
 x/ C,/4D,/4 E,/C,/ x/ C,/4D,/4 E,/D,/ | x4 | x4 |[K:treble] x4 | %183
 x/ (C/4D/4 E/C/) x/ (C/4D/4 E/D/) | x4 | x4 |[K:bass] x4 | x4 | x4 | x4 | x4 | x4 | x4 | x4 | x4 | %195
 x4 | x4 | x4 | x4 | x4 | x4 | x4 | x4 | x4 | x4 | x4 | x4 | x4 | x4 | x4 | x4 | x4 | x4 | x4 | %214
 x4 | x4 | x4 | x4 | x4 | x4 | x4 | x4 | x/[K:treble] x2[K:bass] x3/2 | %223
 x/[K:treble] x2[K:bass] x3/2 | x/[K:treble] x2[K:bass] x3/2 | x/[K:treble] x2[K:bass] x3/2 | x5 | %227
 x16 |[K:C] x17 |[K:treble] x4 | x4 |[K:bass] x4 | x4 | x4 | x4 | x4 ||[K:B] x4 | x4 | x4 | %239
 x/[K:treble] x3/2[K:bass] x2 | x/[K:treble] x2[K:bass] x3/2 | x/[K:treble] x2[K:bass] x3/2 | %242
 x/[K:treble] x2[K:bass] x3/2 | x/[K:treble] x2[K:bass] x3/2 | x5/2[K:treble] x3/2 | %245
 x6[K:bass] x15/4[K:treble] x13/4 | x4 | x4 |[K:bass] x4 | x4 | x4 | x4 | x4 |] %253
V:6
 z8 z4 | z8 | z8 z4 z2 z | z8 | z2 z z/ z/4 |[K:Ab][M:2/4] z/4 | z4 | z4 | z4 | z8 z4 z2 z | z4 | %11
 z4 | z4 | z4 | z4 |[K:Ab] z4 z2 z/ ||[K:Bb][M:6/8] z | z6 | z6 | z6 | z6 | z6 | z6 | z6 | z6 | %25
 z6 | z6 | z6 | z6 | z6 | z6 | z6 | z6 | z6 | z6 | z6 | z6 | z6 | z6 | z6 ||[K:F] z8 z4 z | z16 | %42
 z8 z2 z ||[M:2/4] z | z4 | z4 | z4 | z4 | z4 | z4 | z4 | z4 | z4 | z4 | z4 | z4 | z4 | z4 | z4 | %59
 z4 | z4 | z4 | z4 | z4 | z4 | z4 | z4 | z4 | z4 |[K:F] z4 | z4 | z4 | z4 | z4 | z4 | z4 | z4 | %77
 z4 | z4 | z4 | z4 | z4 | z4 | z2[K:bass]!p! !arpeggio![B,,_D,_E,G,B,_EG_d_e]2 ||[K:Ab][M:2/4] z4 | %85
 z4 | z4 | z4 | z4 z2 | z4 | z4 | z4 | z4 | z4 | z4 ||[K:D] z4 | z4 | z4 | z4 | z4 | z4 | z4 | z4 | %103
 z4 | z4 | z4 | z4 ||[M:6/8] z6 | z6 | z6 | z6 | z6 | z6 | z6 | z6 | z6 | z6 | z6 | z6 | z6 | z6 | %121
 z6 | z6 | z6 | z6 | z6 | z6 | z6 | z6 | z6 | z6 | z6 | z6 | z6 | z6 | z6 | z6 | z6 | z6 | z6 | %140
 z6 | z6 | z6 | z6 | z6 | z6 | z6 | z6 | z6 | z6 | z6 | z6 | z6 | z6 | z6 | z6 ||[M:2/4] z4 | z4 | %158
 z4 | z4 | z4 | z4 ||[K:B][M:2/4] z4 | z4 | z4 | z4 | z4 | z4 | z4 | z4 | z4 | z4 | z4 | z4 | z4 | %175
 z4 | z4 | z4 | z4 | z4 | z4 | z4 | z4 | z4 | z4 | z4 | z4 | z4 | z4 | z4 | z4 | z4 | z4 | z4 | %194
 z4 | z4 | z4 | z4 | z4 | z4 | z4 | z4 | z4 | z4 | z4 | z4 | z4 | z4 | z4 | z4 | z4 | z4 | z4 | %213
 z4 | z4 | z4 | z4 | z4 | z4 | z4 | z4 | z4 | z4 | z4 | z4 | z4 | z4 z | z8 z4 z2 z z | %228
[K:C] z8 z4 z2 z z2 | z4 | z4 | z4 | z4 | z4 | z4 | z4 ||[K:B] z4 | z4 | z4 | z4 | z4 | z4 | z4 | %243
 z4 | z4 | z4 z z z4 z2 z | z4 | z4 | z4 | z4 | z4 | z4 | z4 |] %253

